X:1
T:Jackson's Morning Brush
M:6/8
L:1/8
R:Jig
S:Jacksons Celebrated Irish Tunes (Dublin, 1790)
Z:AK/Fiddlers Companion
K:D
D|DFE EFD|DFA AFA|BAB d2f|gee e2D|
DFE EFD|DFA AFA|BAB d2e|fdd d2:|
|:g|fed f/g/af|fda fdB|AFA dfa|gfg e2g|
fed f/g/af|g/a/bg f/g/af|fed e/f/ge|fdd d2:|
|:g|fdf ece|dBd AGF|EFG dfa|gfg e2g|
fdf edc|dB/c/d/B/ AFA|DFA d2e|fdd d2:|
